TV/Source/Partyland.svg

<svg height="45pt" viewBox="0 0 248 45" width="248pt" xmlns="http://www.w3.org/2000/svg"><path d="m21.3736 0h204.8464l1.7 45h-208.2464zm0 0c-6.1.39-11.98984 3.19-15.95984 7.86-6.35 7.14-7.18 18.42-2.14 26.5 3.49 5.83 9.73984 9.62 16.39984 10.64m206.5464-45c6.1.39 11.99 3.18976 15.96 7.85976 6.35 7.14 7.18 18.42 2.14 26.5-3.49 5.83-9.74 9.62024-16.4 10.64024" fill="#a31e22"/><g fill="#fafae6"><path d="m15.6 13.98c-.14-2.42 1.65375-4.5825 4.28-4.67 4.49-.04 9.73-.83 13.37 2.43 4.45 3.81 4.17 11.54-.51 15.05-2.22 1.88-5.24 1.94-7.99 2.13-.24 2.37.15 5.27-1.91 6.98-2.53 1.99-6.84.34-7.12-2.97-.39-6.3-.17-12.64-.12-18.95z"/><path d="m44.52 11.44c1.34-3.28 6.66-3.22 8.02.02 3.05 6.01 5.73 12.2 8.67 18.27 1.69 2.69 0 6.84-3.33 6.97-2.7.54-4.24-2.04-5.64-3.84-2.49 0-4.99.01-7.48.05-1.34 1.88-2.97 4.38-5.68 3.77-3.26-.19-4.81-4.23-3.26-6.88 2.91-6.11 5.65-12.31 8.7-18.36z"/><path d="m63.56 12.38c.948091-2.8246569 3.623508-3.224212 6.337475-3.1966688 1.543245.015662 3.239565.030728 4.595994.023578 4.497066-.0237052 8.727059 3.2986598 9.546531 7.7430908.93 3.3-.7 6.51-2.53 9.14 1.24 2.41 3.72 5 2.52 7.9-.96 2.67-4.72 3.63-6.88 1.89-1.87-2.15-3.16-4.71-4.65-7.11-.23 2.36.36 5.33-1.75 7.02-2.6 2.22-7.24.4-7.29-3.14-.2-6.74-.37-13.54.1-20.27z"/><path d="m85.5 15.62c-1.82-2.57.295095-6.2532233 3.5-6.27 5.181612-.279099 10.56-.2696 15.82.0804 3.21.39 4.2 5.0496 1.85 7.0396-1.52 1.45-3.83.97-5.73 1.27.05 5.34.6 10.77-.31 16.06-.98 3.92-7.4 3.84-8.3-.08-.49-5.3-.32-10.66-.26-15.98-2.28-.19-5.13.08-6.57-2.12z"/><path d="m108.26 13.87c-.39-3.6 4.05-6.16 7.07-4.23 1.99 1.67 3.17 4.07 4.66 6.16 1.98-2.5 3.28-6.72 7.06-6.77 2.86-.23 5.43 2.85 4.43 5.61-1.73 3.91-5.11 6.82-6.87 10.71-.54 3.06.56 6.43-.9 9.3-1.65 2.97-6.72 2.74-7.89-.53-.81-2.89-.08-5.96-.57-8.9-2-3.98-5.41-7.14-6.99-11.35z"/><path d="m133.43 11.58c1.31-3.59 7.47-3.35 8.26.47.89 5.29.23 10.68.47 16.02 3.08.05 6.58-.54 8.95 1.94 2.76-6.18 5.65-12.31 8.59-18.41 1.38-3.62 7.34-3.35 8.45.36 2.79 6.12 5.89 12.12 8.52 18.32 1.71 3.02-1.23 7.1-4.63 6.42-2.21-.01-3.12-2.29-4.26-3.78-2.6-.05-5.21-.05-7.81-.01-1.23 1.68-2.45 4.07-4.92 3.81-1.68.22-2.82-1.15-4.05-2.02-2.99 2.83-7.32 1.65-11.02 1.89-2.39.05-5.76-.05-6.6-2.84-.96-4.53-.29-9.21-.49-13.81.05-2.78-.17-5.64.54-8.36z"/><path d="m178.73 12.98c.04-3.47 4.84-5.39 7.26-2.9 2.85 2.91 5.17 6.28 7.75 9.43.16-2.9-.48-6.12 1.06-8.75 2.11-3.2 7.95-1.71 7.98 2.25.17 6.62.27 13.27-.06 19.89-.04 3.47-4.89 5.17-7.19 2.69-2.91-3.01-5.17-6.57-7.82-9.8-.25 2.97.51 6.22-.81 9.01-1.88 3.3-7.75 2.16-8.04-1.72-.46-6.68-.27-13.41-.13-20.1z"/><path d="m210.3 9.4c1.48963-.1084532 3.05196-.1824123 4.62506-.2168354 4.70279-.1029074 9.51795.3999199 12.93494 3.9068354 5.64 5.29 5.16 15.2-.75 20.09-4.35 3.95-10.67 3.55-16.13 3.27-2.36.07-4.38-2.06-4.21-4.41-.12-6.02-.06-12.05-.04-18.08-.28-2.18 1.34777-4.3982097 3.57-4.56z"/></g></svg>

<?xml version="1.0" encoding="UTF-8" standalone="no"?>
<svg
   xmlns:dc="http://purl.org/dc/elements/1.1/"
   xmlns:cc="http://creativecommons.org/ns#"
   xmlns:rdf="http://www.w3.org/1999/02/22-rdf-syntax-ns#"
   xmlns:svg="http://www.w3.org/2000/svg"
   xmlns="http://www.w3.org/2000/svg"
   xmlns:sodipodi="http://sodipodi.sourceforge.net/DTD/sodipodi-0.dtd"
   xmlns:inkscape="http://www.inkscape.org/namespaces/inkscape"
   width="248pt"
   height="45pt"
   viewBox="0 0 248 45"
   version="1.1"
   id="svg2"
   inkscape:version="0.91 r13725"
   sodipodi:docname="Partyland.svg">
  <metadata
     id="metadata28">
    <rdf:RDF>
      <cc:Work
         rdf:about="">
        <dc:format>image/svg+xml</dc:format>
        <dc:type
           rdf:resource="http://purl.org/dc/dcmitype/StillImage" />
      </cc:Work>
    </rdf:RDF>
  </metadata>
  <defs
     id="defs26" />
  <sodipodi:namedview
     pagecolor="#ffffff"
     bordercolor="#666666"
     borderopacity="1"
     objecttolerance="10"
     gridtolerance="10"
     guidetolerance="10"
     inkscape:pageopacity="0"
     inkscape:pageshadow="2"
     inkscape:window-width="1920"
     inkscape:window-height="1017"
     id="namedview24"
     showgrid="false"
     inkscape:zoom="4"
     inkscape:cx="129.44194"
     inkscape:cy="68.903598"
     inkscape:window-x="-8"
     inkscape:window-y="-8"
     inkscape:window-maximized="1"
     inkscape:current-layer="svg2" />
  <path
     id="rect4211"
     style="opacity:1;fill:#a31e22;fill-opacity:1;stroke:none;stroke-opacity:1"
     d="m 21.3736,0 204.8464,0 1.7,45 -208.2464,0 z m 0,0 c -6.1,0.39 -11.98984,3.19 -15.95984,7.86 -6.35,7.14 -7.18,18.42 -2.14,26.5 3.49,5.83 9.73984,9.62 16.39984,10.64 M 226.22,0 c 6.1,0.39 11.99,3.18976 15.96,7.85976 6.35,7.14 7.18,18.42 2.14,26.5 -3.49,5.83 -9.74,9.62024 -16.4,10.64024"
     inkscape:connector-curvature="0" />
  <g
     id="#fafae6ff">
    <path
       d="m 15.6,13.98 c -0.14,-2.42 1.65375,-4.5825 4.28,-4.67 4.49,-0.04 9.73,-0.83 13.37,2.43 4.45,3.81 4.17,11.54 -0.51,15.05 -2.22,1.88 -5.24,1.94 -7.99,2.13 -0.24,2.37 0.15,5.27 -1.91,6.98 C 20.31,37.89 16,36.24 15.72,32.93 15.33,26.63 15.55,20.29 15.6,13.98 Z"
       id="path8"
       inkscape:connector-curvature="0"
       style="opacity:1;fill:#fafae6"
       sodipodi:nodetypes="cccccccc" />
    <path
       d=" M 44.52 11.44 C 45.86 8.16 51.18 8.22 52.54 11.46 C 55.59 17.47 58.27 23.66 61.21 29.73 C 62.90 32.42 61.21 36.57 57.88 36.70 C 55.18 37.24 53.64 34.66 52.24 32.86 C 49.75 32.86 47.25 32.87 44.76 32.91 C 43.42 34.79 41.79 37.29 39.08 36.68 C 35.82 36.49 34.27 32.45 35.82 29.80 C 38.73 23.69 41.47 17.49 44.52 11.44 Z"
       id="path10"
       fill="#fafae6"
       opacity="1.00" />
    <path
       d="m 63.56,12.38 c 0.948091,-2.8246569 3.623508,-3.224212 6.337475,-3.1966688 1.543245,0.015662 3.239565,0.030728 4.595994,0.023578 C 78.990535,9.183204 83.220528,12.505569 84.04,16.95 c 0.93,3.3 -0.7,6.51 -2.53,9.14 1.24,2.41 3.72,5 2.52,7.9 -0.96,2.67 -4.72,3.63 -6.88,1.89 -1.87,-2.15 -3.16,-4.71 -4.65,-7.11 -0.23,2.36 0.36,5.33 -1.75,7.02 -2.6,2.22 -7.24,0.4 -7.29,-3.14 -0.2,-6.74 -0.37,-13.54 0.1,-20.27 z"
       id="path12"
       inkscape:connector-curvature="0"
       style="opacity:1;fill:#fafae6"
       sodipodi:nodetypes="csscccccccc" />
    <path
       d="m 85.5,15.62 c -1.82,-2.57 0.295095,-6.2532233 3.5,-6.27 5.181612,-0.279099 10.56,-0.2696 15.82,0.0804 3.21,0.39 4.2,5.0496 1.85,7.0396 -1.52,1.45 -3.83,0.97 -5.73,1.27 0.05,5.34 0.6,10.77 -0.31,16.06 -0.98,3.92 -7.4,3.84 -8.3,-0.08 -0.49,-5.3 -0.32,-10.66 -0.26,-15.98 -2.28,-0.19 -5.13,0.08 -6.57,-2.12 z"
       id="path14"
       inkscape:connector-curvature="0"
       style="opacity:1;fill:#fafae6"
       sodipodi:nodetypes="ccccccccc" />
    <path
       d=" M 108.26 13.87 C 107.87 10.27 112.31 7.71 115.33 9.64 C 117.32 11.31 118.50 13.71 119.99 15.80 C 121.97 13.30 123.27 9.08 127.05 9.03 C 129.91 8.80 132.48 11.88 131.48 14.64 C 129.75 18.55 126.37 21.46 124.61 25.35 C 124.07 28.41 125.17 31.78 123.71 34.65 C 122.06 37.62 116.99 37.39 115.82 34.12 C 115.01 31.23 115.74 28.16 115.25 25.22 C 113.25 21.24 109.84 18.08 108.26 13.87 Z"
       id="path16"
       fill="#fafae6"
       opacity="1.00" />
    <path
       d=" M 133.43 11.58 C 134.74 7.99 140.90 8.23 141.69 12.05 C 142.58 17.34 141.92 22.73 142.16 28.07 C 145.24 28.12 148.74 27.53 151.11 30.01 C 153.87 23.83 156.76 17.70 159.70 11.60 C 161.08 7.98 167.04 8.25 168.15 11.96 C 170.94 18.08 174.04 24.08 176.67 30.28 C 178.38 33.30 175.44 37.38 172.04 36.70 C 169.83 36.69 168.92 34.41 167.78 32.92 C 165.18 32.87 162.57 32.87 159.97 32.91 C 158.74 34.59 157.52 36.98 155.05 36.72 C 153.37 36.94 152.23 35.57 151.00 34.70 C 148.01 37.53 143.68 36.35 139.98 36.59 C 137.59 36.64 134.22 36.54 133.38 33.75 C 132.42 29.22 133.09 24.54 132.89 19.94 C 132.94 17.16 132.72 14.30 133.43 11.58 Z"
       id="path18"
       fill="#fafae6"
       opacity="1.00" />
    <path
       d=" M 178.73 12.98 C 178.77 9.51 183.57 7.59 185.99 10.08 C 188.84 12.99 191.16 16.36 193.74 19.51 C 193.90 16.61 193.26 13.39 194.80 10.76 C 196.91 7.56 202.75 9.05 202.78 13.01 C 202.95 19.63 203.05 26.28 202.72 32.90 C 202.68 36.37 197.83 38.07 195.53 35.59 C 192.62 32.58 190.36 29.02 187.71 25.79 C 187.46 28.76 188.22 32.01 186.90 34.80 C 185.02 38.10 179.15 36.96 178.86 33.08 C 178.40 26.40 178.59 19.67 178.73 12.98 Z"
       id="path20"
       fill="#fafae6"
       opacity="1.00" />
    <path
       d="m 210.3,9.4 c 1.48963,-0.1084532 3.05196,-0.1824123 4.62506,-0.2168354 4.70279,-0.1029074 9.51795,0.3999199 12.93494,3.9068354 5.64,5.29 5.16,15.2 -0.75,20.09 -4.35,3.95 -10.67,3.55 -16.13,3.27 -2.36,0.07 -4.38,-2.06 -4.21,-4.41 -0.12,-6.02 -0.06,-12.05 -0.04,-18.08 -0.28,-2.18 1.34777,-4.3982097 3.57,-4.56 z"
       id="path22"
       inkscape:connector-curvature="0"
       style="opacity:1;fill:#fafae6"
       sodipodi:nodetypes="sscccccs" />
  </g>
  <g
     id="#a31e22ff-4"
     transform="translate(0,-139.81944)" />
  <g
     id="#a31e22ff-4-4"
     transform="matrix(-1,0,0,1,247.59376,-139.8192)" />
</svg>
